X:12
T:Caberfei
M:C|
L:1/8
K:DMix
B|c2ce c2 GA/B/|c2G=F     TE>DCE       |d2 Tfe d2 AB/^c/|d2AG TF>ED
E|CDEG c2 ed   |c2G=F      E>DCE       |DEFG   ABcA     |d2AG TF>ED:|
g|ecgc acgc    |ecgc       a/g/=f/e/ ce|fdad   bdad     |fdad b/a/g/f/ d
g|ecgc acgc    |GAcd ({=f}Te>)dcg      |afge   fde^c    |d2AG TF>ED:|

% @@@@@@@@@@@@@@@@@@@@@@@@@@@@@@@@@@

%% 13. ===============================================================================

% @THE LADS OF@
%  &Leith.&
%
% *SETT and cast off one pair, sett and cast up again.  *Cross over, figure in, and
% cast off; cross up, and figure in with 2d pair.  *SETT to your partner, and turn
% cross Partners, that again.  *The Man leads up with the 1st Couple, the Woman down
% with the 2d at the same time; sett and turn: the Man leads up with the 2 Women, and
% the Woman with the 2 Men on the side, facing other; then turn your Partner into her
% place.

% @@@@@@@@@@@@@@@@@@@@@@@@@@@@@@@@@@

